build/img/icon-tel.svg

<svg width="18" height="18" viewBox="0 0 18 18" fill="none" xmlns="http://www.w3.org/2000/svg">
<path d="M13.05 16.5001C9.98794 16.4961 7.05245 15.278 4.88727 13.1128C2.72208 10.9476 1.50394 8.01212 1.49997 4.95009C1.49997 4.03509 1.86345 3.15757 2.51045 2.51057C3.15745 1.86357 4.03497 1.50009 4.94997 1.50009C5.14372 1.49861 5.33715 1.51619 5.52747 1.55259C5.71145 1.57981 5.89232 1.62503 6.06747 1.68759C6.19065 1.73081 6.30042 1.80544 6.38592 1.90409C6.47143 2.00274 6.52969 2.12201 6.55497 2.25009L7.58247 6.75009C7.61016 6.87223 7.60683 6.99937 7.57277 7.1199C7.5387 7.24042 7.475 7.3505 7.38747 7.44009C7.28997 7.54509 7.28247 7.55259 6.35997 8.03259C7.09871 9.65323 8.39487 10.9547 10.0125 11.7001C10.5 10.7701 10.5075 10.7626 10.6125 10.6651C10.7021 10.5776 10.8121 10.5138 10.9327 10.4798C11.0532 10.4457 11.1803 10.4424 11.3025 10.4701L15.8025 11.4976C15.9264 11.5264 16.0411 11.5862 16.1355 11.6715C16.23 11.7568 16.3012 11.8647 16.3425 11.9851C16.4058 12.1631 16.4534 12.3463 16.485 12.5326C16.5152 12.7211 16.5302 12.9117 16.53 13.1026C16.5161 14.0137 16.1424 14.8823 15.4904 15.5188C14.8385 16.1554 13.9611 16.5081 13.05 16.5001ZM4.94997 3.00009C4.4334 3.00206 3.93856 3.20814 3.57329 3.57341C3.20802 3.93868 3.00194 4.43352 2.99997 4.95009C3.00195 7.6149 4.06143 10.17 5.94574 12.0543C7.83005 13.9386 10.3852 14.9981 13.05 15.0001C13.5665 14.9981 14.0614 14.792 14.4266 14.4268C14.7919 14.0615 14.998 13.5666 15 13.0501V12.8026L11.52 12.0001L11.3025 12.4126C10.965 13.0651 10.7175 13.5376 10.0875 13.2826C8.84463 12.8377 7.71649 12.1216 6.78502 11.1862C5.85355 10.2509 5.14213 9.11977 4.70247 7.87509C4.43247 7.29009 4.94247 7.02009 5.58747 6.68259L5.99997 6.48009L5.19747 3.00009H4.94997Z" fill="#4B4A50"/>
</svg>

<svg width="18" height="18" fill="none" xmlns="http://www.w3.org/2000/svg"><path d="M13.05 16.5A11.565 11.565 0 011.5 4.95 3.45 3.45 0 014.95 1.5c.194-.001.387.016.577.053.184.027.365.072.54.135a.75.75 0 01.488.562l1.027 4.5a.75.75 0 01-.195.69c-.097.105-.105.113-1.027.593a7.433 7.433 0 003.652 3.667c.488-.93.495-.937.6-1.035a.75.75 0 01.69-.195l4.5 1.028a.75.75 0 01.54.487 3.262 3.262 0 01.188 1.118 3.45 3.45 0 01-3.48 3.397zM4.95 3A1.957 1.957 0 003 4.95 10.057 10.057 0 0013.05 15 1.958 1.958 0 0015 13.05v-.247L11.52 12l-.217.413c-.338.652-.586 1.125-1.216.87a8.888 8.888 0 01-5.385-5.408c-.27-.585.24-.855.885-1.192L6 6.48 5.197 3H4.95z" fill="#4B4A50"/></svg>
